assets/images/benefit_4.svg

<svg width="59" height="59" viewBox="0 0 59 59" fill="none" xmlns="http://www.w3.org/2000/svg">
<path d="M7.00887 59C6.26722 58.3342 6.25209 57.971 6.91806 57.2144C11.5042 52.0091 16.1054 46.7886 20.6915 41.5682C20.8278 41.4169 20.964 41.2504 21.1002 41.0991C21.5845 40.5998 22.0689 40.5695 22.5684 41.0688C23.7035 42.1886 24.8085 43.3083 25.9436 44.4281C27.5026 45.9867 29.0616 47.5604 30.6357 49.1189C31.9374 50.4203 33.5266 50.4203 34.8283 49.1189C40.1863 43.7623 45.5444 38.4208 50.8873 33.0641C51.6895 32.2622 51.9922 32.2773 52.8095 33.0793C53.2787 33.5484 53.7479 34.0023 54.2171 34.4714C54.2474 34.4865 54.2777 34.4865 54.3685 34.5168C55.2009 30.4615 56.0485 26.4062 56.9113 22.2298C53.0365 23.3798 49.2526 24.4844 45.3627 25.6345C45.953 26.2246 46.4979 26.7693 47.0277 27.299C47.7996 28.0707 47.7996 28.4338 47.0428 29.1904C42.5778 33.6543 38.1279 38.103 33.6628 42.5669C32.8909 43.3386 32.5277 43.3386 31.7255 42.5518C29.1373 39.9642 26.5491 37.3767 23.9609 34.7892C22.5684 33.397 20.964 33.4273 19.6169 34.88C14.0167 40.9175 8.41649 46.94 2.81628 52.9775C2.08977 53.7644 1.65083 53.7644 0.969727 52.9927C0.969727 52.7657 0.969727 52.5387 0.969727 52.3117C5.19259 47.7571 9.41545 43.2176 13.6383 38.6629C15.2124 36.953 16.8017 35.2583 18.3758 33.5484C20.2677 31.5056 23.1284 31.3997 25.1112 33.3668C27.4723 35.6971 29.8184 38.0576 32.1644 40.4182C32.3309 40.5846 32.452 40.7662 32.5428 40.8721C36.8262 36.5898 41.0491 32.3681 45.3022 28.1161C44.6362 27.4654 43.8794 26.7239 43.1227 25.9825C42.4415 25.2864 42.6232 24.5601 43.5616 24.2877C48.2537 22.8956 52.9609 21.5035 57.6681 20.1265C58.5611 19.8693 59.1211 20.3989 58.9395 21.3068C57.8951 26.3457 56.8659 31.3845 55.7912 36.4234C55.7156 36.7563 55.428 37.1346 55.1253 37.301C54.7469 37.528 54.3836 37.2556 54.0809 36.953C53.3392 36.1964 52.5976 35.455 51.8105 34.653C50.9327 35.5306 50.1153 36.3629 49.298 37.1951C44.9238 41.5682 40.5344 45.9564 36.1602 50.3295C34.0412 52.4479 31.3622 52.4479 29.2583 50.3446C26.9426 48.0446 24.642 45.7294 22.3262 43.4143C22.19 43.2629 22.0992 43.0662 21.9629 42.8393C20.7067 44.2616 19.6018 45.5176 18.4969 46.7735C15.0611 50.6624 11.6404 54.5664 8.20459 58.4552C8.0381 58.6519 7.84133 58.8184 7.65971 59C7.46294 59 7.23591 59 7.00887 59Z" fill="#202020"/>
<path d="M54.1562 59C53.7021 58.6823 53.5811 58.2435 53.5811 57.6836C53.5962 51.9033 53.5962 46.1381 53.5962 40.3577C53.5962 40.1913 53.5811 40.0097 53.6113 39.8432C53.7021 39.359 54.0049 39.0564 54.5043 39.0564C55.0038 39.0564 55.3065 39.3439 55.3973 39.8432C55.4276 40.0097 55.4125 40.1761 55.4125 40.3577C55.4125 46.1381 55.4125 51.9033 55.4276 57.6836C55.4276 58.2435 55.3065 58.6823 54.8525 59C54.6103 59 54.3832 59 54.1562 59Z" fill="#202020"/>
<path d="M43.2744 59.0001C42.8203 58.6824 42.6992 58.2435 42.6992 57.6837C42.7144 53.7191 42.7144 49.7546 42.7144 45.7901C42.7144 45.6237 42.6992 45.4421 42.7295 45.2756C42.8203 44.7914 43.123 44.4888 43.6225 44.4888C44.122 44.4888 44.4247 44.7763 44.5155 45.2756C44.5458 45.4421 44.5306 45.6085 44.5306 45.7901C44.5306 49.7546 44.5155 53.7191 44.5458 57.6837C44.5458 58.2435 44.4247 58.6824 43.9706 59.0001C43.7284 59.0001 43.5014 59.0001 43.2744 59.0001Z" fill="#202020"/>
<path d="M24.2334 59C23.7793 58.6823 23.6582 58.2435 23.6582 57.6836C23.6733 54.627 23.6733 51.5703 23.6733 48.5137C23.6733 48.3624 23.6582 48.2111 23.6733 48.0598C23.7339 47.5604 24.0971 47.2124 24.5663 47.2124C25.0356 47.2124 25.4139 47.5604 25.4594 48.0598C25.4896 48.3927 25.4745 48.7407 25.4745 49.0736C25.4745 51.9335 25.4594 54.8085 25.4896 57.6684C25.4896 58.2283 25.3685 58.6671 24.9145 58.9849C24.6874 59 24.4604 59 24.2334 59Z" fill="#202020"/>
<path d="M16.0753 59.0001C15.6212 58.6823 15.485 58.2435 15.5001 57.6836C15.5304 56.0796 15.5153 54.4757 15.5153 52.8717C15.5153 52.1605 15.8483 51.752 16.4234 51.752C16.9834 51.752 17.3316 52.1605 17.3316 52.8717C17.3316 54.4757 17.3164 56.0796 17.3467 57.6836C17.3618 58.2435 17.2256 58.6672 16.7715 59.0001C16.5294 59.0001 16.3023 59.0001 16.0753 59.0001Z" fill="#202020"/>
<path d="M35.1163 58.9999C34.6622 58.6821 34.526 58.2433 34.5412 57.6834C34.5714 56.3821 34.5563 55.0807 34.5563 53.7794C34.5563 53.0682 34.8893 52.6597 35.4644 52.6597C36.0245 52.6597 36.3726 53.0682 36.3726 53.7794C36.3726 55.0807 36.3574 56.3821 36.3877 57.6834C36.4028 58.2433 36.2666 58.667 35.8126 58.9999C35.5704 58.9999 35.3433 58.9999 35.1163 58.9999Z" fill="#202020"/>
<path d="M53.5818 2.83094C50.5395 2.83094 47.5578 2.83094 44.5155 2.83094C44.5155 3.07305 44.5155 3.28489 44.5155 3.51187C44.5155 9.41325 44.5155 15.3298 44.5155 21.2311C44.5155 21.3825 44.5155 21.5338 44.5155 21.6851C44.5004 22.3509 44.1522 22.7595 43.5922 22.7443C43.0473 22.7292 42.6992 22.3358 42.6992 21.6548C42.6992 15.1179 42.6992 8.59613 42.6992 2.05922C42.6992 1.31776 43.0322 0.984863 43.7739 0.984863C47.2853 0.984863 50.7968 0.984863 54.3083 0.984863C55.05 0.984863 55.3829 1.31776 55.3829 2.05922C55.3829 7.38559 55.3829 12.6968 55.3829 18.0232C55.3829 18.689 55.0348 19.0976 54.4899 19.1127C53.9299 19.1127 53.5818 18.7041 53.5818 17.993C53.5818 13.1811 53.5818 8.36916 53.5818 3.55726C53.5818 3.34542 53.5818 3.11844 53.5818 2.83094Z" fill="#202020"/>
<path d="M34.5406 20.9589C31.4984 20.9589 28.5318 20.9589 25.4744 20.9589C25.4744 21.1707 25.4744 21.3674 25.4744 21.5641C25.4744 24.2273 25.4744 26.8905 25.4744 29.5386C25.4744 29.705 25.4895 29.8866 25.4592 30.0531C25.3987 30.5524 25.0354 30.9004 24.5662 30.9004C24.097 30.9004 23.7035 30.5524 23.6732 30.0531C23.6429 29.5991 23.6581 29.1451 23.6581 28.6912C23.6581 25.8918 23.6581 23.1076 23.6581 20.3082C23.6581 19.4154 23.9608 19.1128 24.8387 19.1128C28.2745 19.1128 31.7103 19.1128 35.1461 19.1128C36.0391 19.1128 36.3418 19.4154 36.3418 20.2931C36.3418 25.2563 36.3418 30.2195 36.3418 35.1827C36.3418 35.909 36.0088 36.3176 35.4639 36.3327C34.8888 36.3479 34.5406 35.9242 34.5406 35.1676C34.5406 30.6735 34.5406 26.1793 34.5406 21.7003C34.5406 21.4733 34.5406 21.2464 34.5406 20.9589Z" fill="#202020"/>
<path d="M15.5153 31.8385C12.473 31.8385 9.50638 31.8385 6.44897 31.8385C6.44897 32.0504 6.44897 32.2471 6.44897 32.4438C6.44897 36.3175 6.44897 40.1761 6.44897 44.0498C6.44897 44.2314 6.46411 44.4281 6.43384 44.6097C6.34302 45.0939 6.04031 45.3966 5.54083 45.3966C5.04135 45.3966 4.73864 45.1091 4.64783 44.6248C4.61755 44.4584 4.63269 44.2919 4.63269 44.1104C4.63269 39.8432 4.63269 35.5761 4.63269 31.324C4.63269 30.2799 4.89 30.0076 5.91922 30.0076C9.29449 30.0076 12.6697 30.0076 16.0601 30.0076C17.0591 30.0076 17.3315 30.2799 17.3315 31.2786C17.3315 31.7477 17.3467 32.2168 17.3315 32.6859C17.3164 33.2306 16.9531 33.5938 16.4537 33.6089C15.9391 33.6241 15.5607 33.2458 15.5304 32.6708C15.5001 32.4286 15.5153 32.1563 15.5153 31.8385Z" fill="#202020"/>
</svg>

<svg width="59" height="59" fill="none" xmlns="http://www.w3.org/2000/svg"><path d="M7.009 59c-.742-.666-.757-1.029-.09-1.786 4.585-5.205 9.186-10.425 13.773-15.646.136-.151.272-.318.408-.469.484-.5.969-.53 1.468-.03 1.135 1.12 2.24 2.24 3.376 3.36 1.559 1.558 3.118 3.131 4.692 4.69 1.301 1.301 2.89 1.301 4.192 0 5.358-5.357 10.716-10.698 16.06-16.055.802-.802 1.104-.787 1.922.015.469.47.938.923 1.407 1.392.03.016.06.016.151.046.833-4.056 1.68-8.11 2.543-12.287-3.875 1.15-7.658 2.254-11.548 3.404l1.665 1.665c.772.772.772 1.135.015 1.891l-13.38 13.377c-.772.772-1.135.772-1.937-.015l-7.765-7.763c-1.393-1.392-2.997-1.362-4.344.091-5.6 6.037-11.2 12.06-16.8 18.097-.727.787-1.166.787-1.847.016v-.681c4.223-4.555 8.445-9.094 12.668-13.65 1.574-1.709 3.164-3.404 4.738-5.114 1.892-2.042 4.752-2.148 6.735-.181 2.361 2.33 4.707 4.69 7.053 7.051.167.167.288.348.379.454l12.76-12.756c-.667-.65-1.424-1.392-2.18-2.133-.681-.697-.5-1.423.439-1.695 4.692-1.392 9.399-2.785 14.106-4.162.893-.257 1.453.273 1.272 1.18-1.045 5.04-2.074 10.078-3.149 15.117a1.49 1.49 0 0 1-.666.878c-.378.227-.741-.045-1.044-.348-.742-.757-1.483-1.498-2.27-2.3a383 383 0 0 0-2.513 2.542L36.16 50.33c-2.119 2.118-4.798 2.118-6.902.015-2.315-2.3-4.616-4.616-6.932-6.93-.136-.152-.227-.349-.363-.576-1.256 1.423-2.361 2.679-3.466 3.934-3.436 3.89-6.857 7.793-10.292 11.682-.167.197-.364.363-.545.545h-.651ZM54.156 59c-.454-.318-.575-.757-.575-1.316.015-5.78.015-11.546.015-17.326 0-.167-.015-.348.015-.515.091-.484.394-.787.893-.787.5 0 .803.288.893.787.03.167.016.333.016.515 0 5.78 0 11.545.015 17.326 0 .56-.121.998-.575 1.316h-.697Z" fill="#202020"/><path d="M43.274 59c-.454-.318-.575-.757-.575-1.316.015-3.965.015-7.93.015-11.894 0-.166-.015-.348.016-.514.09-.485.393-.787.893-.787.499 0 .802.287.893.787.03.166.015.332.015.514 0 3.965-.015 7.93.015 11.894 0 .56-.121.998-.575 1.316h-.697ZM24.233 59c-.454-.318-.575-.757-.575-1.316.015-3.057.015-6.114.015-9.17 0-.152-.015-.303 0-.454.06-.5.424-.848.893-.848.47 0 .848.348.893.848.03.333.015.68.015 1.014 0 2.86-.015 5.735.016 8.594 0 .56-.121 1-.575 1.317-.228.015-.455.015-.682.015ZM16.075 59c-.454-.318-.59-.757-.575-1.316.03-1.604.015-3.208.015-4.812 0-.712.333-1.12.908-1.12.56 0 .909.408.909 1.12 0 1.604-.016 3.208.015 4.812.015.56-.121.983-.576 1.316h-.696ZM35.116 59c-.454-.318-.59-.757-.575-1.317.03-1.3.015-2.602.015-3.904 0-.71.333-1.12.908-1.12.56 0 .909.41.909 1.12 0 1.302-.016 2.603.015 3.904.015.56-.121.984-.575 1.317h-.697ZM53.582 2.83h-9.066V21.686c-.016.666-.364 1.075-.924 1.06-.545-.016-.893-.41-.893-1.09V2.059c0-.741.333-1.074 1.075-1.074h10.534c.742 0 1.075.333 1.075 1.074v15.964c0 .666-.348 1.075-.893 1.09-.56 0-.908-.409-.908-1.12V2.831ZM34.54 20.959h-9.066v8.58c0 .166.015.348-.015.514-.06.5-.424.847-.893.847a.885.885 0 0 1-.893-.847c-.03-.454-.015-.908-.015-1.362v-8.383c0-.893.303-1.195 1.18-1.195h10.308c.893 0 1.196.302 1.196 1.18v14.89c0 .726-.333 1.135-.878 1.15-.575.015-.923-.409-.923-1.165V20.959ZM15.515 31.838H6.45V44.05c0 .181.015.378-.015.56-.091.484-.394.787-.893.787-.5 0-.802-.288-.893-.772-.03-.167-.015-.333-.015-.515V31.324c0-1.044.257-1.316 1.286-1.316H16.06c1 0 1.271.272 1.271 1.27 0 .47.016.939 0 1.408-.015.545-.378.908-.877.923-.515.015-.893-.363-.924-.938-.03-.242-.015-.515-.015-.832Z" fill="#202020"/></svg>
